X:1
T:Title
%%score { ( 1 3 5 ) | ( 2 4 ) }
L:1/8
Q:1/4=135
M:6/4
K:Db
V:1 treble nm="Grand Piano"
V:3 treble 
V:5 treble 
V:2 bass 
V:4 bass 
V:1
 [Fd]6 [FA]6 | F2 _F2 =F2 A2 D2 E2 | F6 [_FB]6 | [FA]12 | G6 c6 | e2 =d2 e2 G2 c2 B2 | A6 [EG]6 | %7
w: Anton~J.~Kehrein *|||||||
 F12[K:bass] | z6 [B,FA]6 | F2 _F2 =F2 A2 D2 E2 | F6 [DFB]6 | [GB-]6 B6 | [E=Ge]6 [EGB]6 | %13
w: ||||||
 c2 _c2 =c2 e2 A2 [Fd]2 | c6 B6[K:bass] | [CA-]6 A6 | [Af]2 [Fd]2 [FB]2 [FA]2 [E=G]2 [FA]2 | %17
w: ||||
 [FB]6 [DFA]6 | [Fd]2 [FA]2 [EG]2 F2 _F2 =F2 | G12[K:bass] | e2 c2 A2 G2 F2 G2 | c6 [A,GB]6 | %22
w: |||||
 A2 c2 d2 e2 A2 e2 | [Af]12[K:bass] | [D,DAf]2 [Fd]2 [FB]2 [FA]2 [_F=G]2 [=FA]2 | [DFB]6 [DFA]6 | %26
w: ||||
 F2 F2 [EF]2 [DF]2 [DB]2 [Ec]2 | [Fd]12[K:bass] | d2 c2 d2 e2 d2 B2 | [DFA]6 [Af]6 | %30
w: ||||
 [DBe]2 f2 g2 f2 e2 A2 | [DFd]12[K:bass] |] %32
w: ||
V:2
 [D,A,]6 [D,D]6 | [D,A,D]2 [D,=G,D]2 [D,A,D]2 [D,F,D]2 [D,F,]2 [D,_G,D]2 | %2
 [D,A,]2- [D,-F,A,-]2 [D,F,A,]2 z2 B,2 B,2 | z2 F,2 G,2 A,2[K:treble] [A,E]2 [A,F]2 | %4
 [CE]2 C2 C2 [A,G]2- [A,-CG-]2 [A,CG]2 | [A,CG]2 [A,_CF]2 [A,=CG]2 [A,CE]2 [A,E]2 [A,CG]2 | %6
 .[DF]6[K:bass] .[C,A,]6 | .D6 z6 | z2 F,2 F,2 z2 F,2 F,2 | %9
 [D,A,D]2 [D,=G,D]2 [D,A,D]2 [D,F,D]2 [D,F,]2 [D,_G,D]2 | D2 F,2 F,2 z2 F,2 F,2 | %11
 z2 B,2 B,2 z2 B,2 B,2 | z2 B,2 B,2 z2 B,2 B,2 | %13
 [A,EA]2 [A,=DA]2 [A,EA]2 [A,CA]2 [A,C]2[K:bass] [D,A,]2 | E2 C2 C2 [E,=G,D]6 | A,,6 z6 | %16
 [D,D]2 [D,A,]2 [D,A,]2 [D,D]2 [D,D]2 [D,D]2 | z2 F,2 F,2 z2 F,2 F,2 | %18
 [D,A,]2 [D,D]2 [D,D]2 [D,A,D]2 [D,=G,D]2 [D,A,D]2 | [E,A,-C-]6 [A,C]6 | %20
 [A,CG]2 [A,E]2 [A,CE]2 [A,CE]2 [A,=D]2[K:bass] [A,CE]2 | z2 E,2 E,2 z2 E,2 E,2 | %22
 [A,CG]2 [A,EG]2 [A,DF]2 [A,CG]2 [A,CG]2 [A,CA]2 | [D,D]12 | %24
 z2 [D,A,]2 [D,A,]2 [D,D]2 [D,D]2 [D,D]2 | z2 F,2 F,2 z2 F,2 F,2 | %26
 [D,A,D]2 [D,A,D]2 [C,=A,]2 [B,,B,]2 [B,,B,]2 [B,,B,]2 | [B,,B,]6 .B,,6 | %28
 [G,B,G]2 [G,=A,G]2 [G,B,G]2 [G,B,G]2 [G,B,G]2 [G,B,G]2 | z2 F,2 F,2 z2 F,2 F,2 | %30
 [G,,G,]2 [F,,F,DB]2 [E,,E,DB]2 [A,DA]2[K:treble] [A,CG]2 [A,CG]2 | D,12 |] %32
V:3
 x12 | x12 | z2 D2 D2 z2 D2 D2 | A,2- [A,-D]2 [A,E]2 D2 G2 A2 | z2 E2 E2 z2 E2 E2 | x12 | %6
 z2 F2 F2 z2 B,2 C2 | z2[K:bass] F,2 B,2 A,,2 F,2 E,2 | [Fd]6 z2 A,2 A,2 | x12 | %10
 z2 D2 D2 z2 B,2 B,2 | z6 .A6 | z2 D2 D2 z2 D2 D2 | x12 | z2 E2 E2 z2[K:bass] B,2 B,2 | %15
 z6 .[C,G]6 | x12 | z2 A,2 A,2 z2 A,2 A,2 | x12 | z4[K:bass] E,2- E,2 z2 z2 | x12 | %21
 z2 C2 C2 C2 C2 C2 | x12 | z2[K:bass] F,2 B,2 A,2 F,2 D,2 | x12 | z2 A,2 A,2 z2 A,2 A,2 | x12 | %27
 z6[K:bass] .B,6 | x12 | z2 A,2 A,2 z2 A,2 A,2 | x12 | z2[K:bass] A,2 F,2 z6 |] %32
V:4
 x12 | x12 | .D6 [D,=G,]6 | D,12[K:treble] | A,6 .E6 | x12 | %6
 A,2- [A,-D]2 [A,D]2[K:bass] A,,2 B,,2 C,2 | %7
 [D,A,]2- [F,,D,-A,-]2 [B,,D,-A,-]2 [D,A,]2- [F,,D,A,]2 E,,2 | [D,A,]6 D,6 | x12 | [D,A,]6 B,,6 | %11
 [G,,G,]6 .[F,,F,]6 | E,6 E,6 | x10[K:bass] x2 | [E,A,]6 z6 | z2 E,,2 C,,2 A,,,2 B,,,2 C,,2 | x12 | %17
 [D,D]6 D,6 | x12 | [A,,,A,,]2 C,,2 E,,2 G,,2 E,,2 C,,2 | x10[K:bass] x2 | %21
 [A,,,A,,A,EG]6 [A,,,A,,]6 | x12 | z2 F,,2 B,,2 A,,2 F,,2 E,,2 | D,,6 z6 | [D,,D,]6 D,6 | x12 | %27
 z2 _F,,2 =F,,2 z2 F,,2 D,,2 | G,,6 G,,6 | D,6 [D,D]6 | z6 A,,6[K:treble] | z2 A,,2 F,,2 z6 |] %32
V:5
 x12 | x12 | x12 | x12 | x12 | x12 | x12 | x2[K:bass] x10 | x12 | x12 | x12 | D2 D2 D2 =D2 D2 D2 | %12
 x12 | x12 | x8[K:bass] x4 | A,2- [E,A,-]2 [C,A,-]2 [A,,A,-]2 [B,,A,]2 C,2 | x12 | x12 | x12 | %19
 z2[K:bass] .C,4 G,2 E,2 C,2 | x12 | x12 | x12 | x2[K:bass] x10 | x12 | x12 | x12 | %27
 z2[K:bass] _F,2 =F,2 z2 F,2 D,2 | x12 | x12 | x12 | x2[K:bass] x10 |] %32

